X:1
T:Willie's Lyke-Wake
M:2/4
L:1/8
K:F
 D/2E/2| GG G F/2D/2| GG GA/2-G/2| FF Ac| d2 z c| cc dc/2-f/2| dG GA/2-G/2|\
 FD FG/2-A/2| B2 AG| AD FA| G2 z||

